X: 064
T: Pretty Cupid
%R: march
Z: 2017 John Chambers <jc:trillian.mit.edu>
B: John Treat - "Gamut for the Fifes", 1779, p.5 #4
F: https://archive.org/details/GamutFortheFifes
N: The left edge is torn off; the 1st bar is transcribed like the 4th bar.
M: 2/4
L: 1/8
K: G
% - - - - - - - - - - - - - - - - - - - - - - - - -
|:\
G>B A>c | B>d GB | A>G F2 | G>B A>c | B>d e>f | ge d2 ::\
Bd ef | gd Bd | ef g2 | gd ec | BG cA | FA G2 :|
% - - - - - - - - - - - - - - - - - - - - - - - - -
